X: 19
T: No_117_My_Travels.krn
%%abc-version 2.0
%%abcx-abcm2ps-target-version 5.9.1 (29 Sep 2008)
%%abc-creator hum2abc beta
%%abcx-conversion-date 2020/08/10 18:54:57
%%gracespace 0 6 6
%%humdrum-veritas 1834898462
%%humdrum-veritas-data 2730235474
%%linebreak <none>
%%barnumbers 0
L: 1/8
M: 2/4
%%staves {1 2}
V: 1 clef=bass
V: 2 clef=bass
K: Eb
[V:1] [K:clef=bass][M:2/4]FF FE ||  
[V:2] [K:clef=bass][M:2/4](3!accent!G,, z G,, (3!accent!G,, z G,, ||  
[V:1] [M:3/4]E>EE4 ||  
[V:2] [M:3/4]z6 ||  
[V:1] [M:2/4]E<E E/CE/ | 
[V:2] [M:2/4]z4 | 
[V:1] CB, B,3/B,/ ||  
[V:2] z4 ||  
[V:1] [M:3/4]B,6 ||  
[V:2] [M:3/4]z6 ||  
[V:1] [M:2/4]E>E E3/E/ ||  
[V:2] [M:2/4]z4 ||  
[V:1] [M:3/4]E<B,B,4 ||  
[V:2] [M:3/4]z6 ||  
[V:1] [M:2/4]E<G, G,/F,G,/ | 
[V:2] [M:2/4]z4 | 
[V:1] F,<E, E,3/E,/ | 
[V:2] z4 | 
[V:1] E,4 | 
[V:2] z4 | 
[V:1] G,2G,/G,/F,3//G,// | 
[V:2] z4 | 
[V:1] F,E, E,3/E,/ | 
[V:2] z4 | 
[V:1] E,4 ||  
[V:2] z4 ||  
[V:1] [M:3/4]E,2E,<C, E,C, ||  
[V:2] [M:3/4]z6 ||  
[V:1] [M:2/4]B,,>B,,B,,2 | 
[V:2] [M:2/4]z4 | 
[V:1] B,,4 |]  
[V:2] z4 |]  


